X: 7497
T: Coalminer's, The
R: reel
M: 4/4
K: Dmajor
|:A,DFD EDB,D|ADFD EDB,D|A,DFD EDB,D|dBAF (3EFE DB,||
A,DFD EDB,D|ADFD EDB,D|A,DFD EDB,D|1 dBAF D2 DB,:|2 dBAF DEFA||
|:d2 dB ABdB|ADFD EDB,D|dedB ABde|(3faf df (3efe dB|
fddf eBdB|ADFD EDB,D|A,DFD EDB,D|1 dBAF DEFA:|2 dBAF D2 DB,||

